X:10
T:THE CRANBERRY TART/A New Pair of Shoes # 1
M:6/8
L:1/8
Q:116
C:O'REILLY
S:8 X 32 JIG  1,2,3,4  2,3,4,1
R:JIG
K:G
|dc|: "G" BGG dGG| "G" BAG Ggf| "C" efg "G" dBG| "D" FAA Adc|!
|"G" BGG dGG| "G" BGG g2 f| "C" efg "G" dBG|1 "D7" FAF G2 A:|2 "D7" FAF"G" G2 d||!
|: "G" gfg "D7" afd | "G" gfe dBd| "C" efg "G" dBG| "D7" FAA A2 d|!
|"G" gfg afd| "G" gfe dgf| "C" ecA "G" dBG|1 "D7" FAF "G" G2 d:|2 "D7" FAF "G" G2||!
